X:1
T:Sing Ivy
T:trad. (coll. G. B. Gardiner), arr. Gustav von Holst
T:6. I stowed it in a mouse's hole, Sing ovy, sing ivy, I mowed it in a mouse's hole, A bunch of green holly and ivy. 7. I threshed it out with two beanstalks, Sing ovy, sing ivy, I threshed it out with two beanstalks, A bunch of green holly and ivy. 8. I sent my rats to market with that, Sing ovy, sing ivy, I sent my rats to market with that, A bunch of green holly and ivy.
T:3. I sowed it with two peppercorns, Sing ovy, sing ivy, I sowed it with two peppercorns, A bunch of green holly and ivy. 4. I rolled it with a rolling-pin, Sing ovy, sing ivy, I rolled it with a rolling-pin, A bunch of green holly and ivy. 5. I reaped it with my little penknife, Sing ovy, sing ivy, I reaped it with my little penknife, A bunch of green holly and ivy.
T:by Mutopia-2006/06/29-789 - public domain
T:by Mutopia-2006/06/29-789 - public domain
C:trad. (coll. G. B. Gardiner),
Z:by Mutopia-2006/06/29-789 - public domain
%%score 1 { ( 2 4 ) | 3 }
L:1/8
Q:1/4=75
M:6/8
K:G
V:1 treble nm="Voice"
V:2 treble nm="Piano"
V:4 treble 
V:3 treble 
V:1
"^Allegretto" z6 | z2 z !fermata!B3 |: A2 A EEB | AGA E2 B, | E3 F2 B | e3 B z e | (dc)d BBB | %7
w: |My|fa\- ther gave me an|a\- cre of land, Sing|o\- vy, sing|i\- vy, My|fa\- * ther gave me an|
 ABA E2 E | EBB BAG | F3 E3 | z6 | z3 B3 | AAA E2 B | (AG)A E2 B, | E3 F z B | e3 B z e | %16
w: a\-. cre of land, A|bunch of green hol\- ly and|i\- vy.||I|har\- rowed it with a|bram\- * ble bush, Sing|o\- vy, sing|i\- vy, I|
 dcd B2 B | (AB)A E2 E | EBB BAG |1,2,3,4,0 F3 E2 z | z2 z B3 :|5,6,7,8,9 F3 E3 || %22
w: har\- rowed it with a|bram\- * ble bush, A|bunch of green hol\- ly and|i\- vy.|I|i\- vy.|
"^cresc." z2 z"^Poco animato." B3 | A2 A E2 B | (AG)A E2 B, | E3 F2 B | e3 B2 e | %27
w: My|team o’ rats came|ratt\- * ling back, Sing|o\- vy, sing|i\- vy, My|
"^cresc." (dc)d B2 B | (AB)A E2 E | AAA EFE/E/ | (AB)A E2 E | EBB BAG | F3 E2 z | !fermata!z6 |] %34
w: team * o’ rats came|ratt\- * ling back With|fif\- ty bright guin eas and an|emp\- * ty sack, A|bunch of green hol\- ly and|i\- vy.||
V:2
!mf! (eb)b (ba)g | (f3 B) z !fermata!z |:!p! ([ea]3 [Be]) z z | ([ea]3 [Be]) z z | %4
 ([ea]3 [df]) z z | ([ce]3 B) z z | ([Bf]3 [eg]) z z | [da]3 [ec']3 | [ed']6 | [ec']6 | %10
 (eb)b (ba)g | (f3 B) z z |!pp! ([ea]2 A [eb]2 B | [ec']2 c [eb]2 B | [ea]2 A [fb]2 B | %15
 [fc']2 c [fb]2 B | [fa]2 A [fb]2 B | [fc']2 c [fa]2 A) | b3 g3 |1,2,3,4,0 f3 e3 | %20
 [Fcf]3 [Gdg]3 :|5,6,7,8,9 z [ea]A z [ea]A || z [ea]A z [eb]B | z [ea]A z [eb]B | %24
 z [ec']c z [eb]B | z [ea]c z [fb]B | z [ec']c z [eb]B | z [ea]A z [eb]B | z [ec']c z [eb]B | %29
"_cresc." z [ea]A z [e^gb]B | z [ea^c']^c z [e^gb]B |"_dim." !>![Geg]6 |!>(! [ce]6!>)! | %33
!pp! z2 z !fermata![^Ge^g]3 |] %34
V:3
 [G,E]6 | ([A,C]3 [B,D]) z !fermata!z |: ([A,E]3 [EG]) z z | ([A,E]3 [EG]) z z | %4
 ([A,E]3 [B,D]) z z | ([CE]3 [EG]) z z | ([B,F]3 [EG]) z z | [DF]3 [CG]3 | [B,G]6 | [A,F]6 | %10
 [G,E]6 | ([A,C]3 [B,D]) z z |[K:bass] ([A,,,E,,]2 A,, [B,,,E,,]2 B,, | %13
 [C,,E,,]2 C, [B,,,E,,]2 B,, | [A,,,E,,]2 A,, [B,,,F,,]2 B,, | [C,,F,,]2 A,, [B,,,F,,]2 B,, | %16
 [A,,,F,,]2 A,, [B,,,F,,]2 B,, | [C,,F,,]2 C, [A,,,F,,]2 A,,) | [B,,,E,,B,,]6 |1,2,3,4,0 %19
 [C,,C,]3 [E,G,C]3 |[K:treble] [CE]3 [B,D]3 :|5,6,7,8,9[K:bass] [C,,E,,]2 C, [C,,E,,]2 C, || %22
 [C,,E,,]zC, [B,,,E,,]zB,, | [C,,E,,]zC, [B,,,E,,]zB,, | [A,,,E,,]zA,, [B,,,E,,]zB,, | %25
 [C,,E,,]zC, [B,,,F,,]zB,, | [A,,,E,,]zA,, [B,,,E,,]zB,, | [C,,E,,]zC, [B,,,E,,]zB,, | %28
 [A,,,E,,]zA,, [B,,,E,,]zB,, | [^C,,E,,]z^C, [B,,,E,,]zB,, | [A,,,E,,]zA,, [B,,,E,,]zB,, | %31
 !>![C,,C,]6 | [A,,,E,,A,,]6 | [E,,,E,,]3 !fermata![E,B,E]3 |] %34
V:4
 x6 | x6 |: x6 | x6 | x6 | x6 | x6 | x6 | x6 | x6 | x6 | x6 | x6 | x6 | x6 | x6 | x6 | x6 | %18
 [Be]6 |1,2,3,4,0 [Gc]6 | x6 :|5,6,7,8,9 x6 || x6 | x6 | x6 | x6 | x6 | x6 | x6 | x6 | x6 | x6 | %32
 [Ff]3 [Gg]3 | x6 |] %34

